X:1
T:Title
%%score 1 2
L:1/8
Q:1/4=107
M:4/4
K:Eb
V:1 treble nm="Grand Piano, Soprano"
V:2 bass nm="Choir Pad, Keep on Praying (Smith)"
V:1
 B3 G E2 [DF]2 | [EG]2 [EB]2 [EB]4 | [EG]4 [DF]4 | [DF]2 E6 | B3 G E2 [DF]2 | [EG]2 [EB]2 [EB]4 | %6
w: By~Joseph~Lincoln~Hall * * *||||||
 [DF]4 [Fd]4 | [Ec]2 [DB]6 | [Ad]3 [Ad] [Ac]2 [Ad]2 | [Gc]2 [GB]2 [EG]4 | [Ec]3 [Ec] [Ee]2 [Ec]2 | %11
w: |||||
 [Ec]2 [EB]2 [EB]4 | E3 F G2 A2 | [GB]2 [Ge]2 [Ac]4 | [GB]4 [EG]4 | [DF]2 E6 | [EG]4 [DF]4 | %17
w: ||||||
 E2 [EB]6 | [Ec]4 [Ee]4 | [Ac]2 [GB]6 | E3 F G2 A2 | [GB]2 [Ge]2 [Ac]4 | [GB]4 [EG]4 | [DF]2 E6- | %24
w: |||||||
 E2 z2 z4 |] %25
w: |
V:2
 B,3 G, E,2 [B,,B,]2 | [E,B,]2 [E,G,]2 [E,G,]4 | [E,B,]4 [B,,A,]4 | [F,A,]2 [E,G,]6 | %4
 B,3 G, E,2 [B,,B,]2 | [E,B,]2 [E,G,]2 [E,G,]4 | [F,B,]4 [F,B,]4 | [F,=A,]2 [B,,B,]6 | %8
 [B,,B,]3 [B,,B,] [B,,B,]2 [B,,B,]2 | [E,B,]2 [E,B,]2 [E,B,]4 | A,3 A, [A,C]2 A,2 | %11
 [E,A,]2 [E,G,]2 [E,G,]4 | E,3 F, G,2 A,2 | [E,E]2 [E,E]2 [A,E]4 | [B,E]4 B,4 | [B,,A,]2 [E,G,]6 | %16
 [E,B,]4 [B,,A,]4 | [E,G,]2 [E,G,]6 | A,4 [A,C]4 | [E,E]2 [E,E]6 | E,3 F, G,2 A,2 | %21
 [E,E]2 [E,E]2 [A,E]4 | [B,E]4 B,4 | [B,,A,]2 [E,G,]6- | [E,G,]2 z2 z4 |] %25

